svg/600/outlined/drag_indicator.svg

<svg xmlns="http://www.w3.org/2000/svg" width="48" height="48" viewBox="0 -960 960 960"><path d="M343.994-146.999q-31.718 0-54.356-22.587-22.639-22.587-22.639-54.305t22.587-53.913Q312.173-300 343.891-300t53.913 22.144Q420-255.712 420-223.994q0 31.718-22.144 54.356-22.144 22.639-53.862 22.639Zm272.635 0q-31.717 0-54.173-22.587Q540-192.173 540-223.891t22.491-53.913Q584.983-300 616.566-300q31.817 0 54.126 22.144 22.309 22.144 22.309 53.862 0 31.718-22.327 54.356-22.327 22.639-54.045 22.639ZM343.994-403.782q-31.718 0-54.356-22.492-22.639-22.491-22.639-54.075 0-32.042 22.587-53.956 22.587-21.913 54.305-21.913t53.913 22.002Q420-512.214 420-480.454t-22.144 54.216q-22.144 22.456-53.862 22.456Zm272.635 0q-31.717 0-54.173-22.492Q540-448.765 540-480.349q0-32.042 22.491-53.956 22.492-21.913 54.075-21.913 31.817 0 54.126 22.002 22.309 22.002 22.309 53.762t-22.327 54.216q-22.327 22.456-54.045 22.456ZM343.994-660q-31.718 0-54.356-22.491-22.639-22.492-22.639-54.075 0-31.817 22.587-54.126 22.587-22.309 54.305-22.309t53.913 22.327Q420-768.347 420-736.629q0 31.717-22.144 54.173Q375.712-660 343.994-660Zm272.635 0q-31.717 0-54.173-22.491Q540-704.983 540-736.566q0-31.817 22.491-54.126 22.492-22.309 54.075-22.309 31.817 0 54.126 22.327 22.309 22.327 22.309 54.045 0 31.717-22.327 54.173Q648.347-660 616.629-660Z"/></svg>

<svg xmlns="http://www.w3.org/2000/svg" width="48" height="48" viewBox="0 -960 960 960"><path d="M343.99-147q-31.71 0-54.35-22.59Q267-192.17 267-223.89t22.59-53.91q22.58-22.2 54.3-22.2t53.91 22.14q22.2 22.15 22.2 53.87 0 31.71-22.14 54.35Q375.71-147 343.99-147Zm272.64 0q-31.72 0-54.17-22.59Q540-192.17 540-223.89t22.49-53.91q22.49-22.2 54.08-22.2 31.81 0 54.12 22.14Q693-255.71 693-223.99q0 31.71-22.33 54.35Q648.35-147 616.63-147ZM343.99-403.78q-31.71 0-54.35-22.49Q267-448.77 267-480.35q0-32.04 22.59-53.95 22.58-21.92 54.3-21.92t53.91 22q22.2 22.01 22.2 53.77t-22.14 54.21q-22.15 22.46-53.87 22.46Zm272.64 0q-31.72 0-54.17-22.49Q540-448.77 540-480.35q0-32.04 22.49-53.95 22.49-21.92 54.08-21.92 31.81 0 54.12 22Q693-512.21 693-480.45t-22.33 54.21q-22.32 22.46-54.04 22.46ZM343.99-660q-31.71 0-54.35-22.49T267-736.57q0-31.81 22.59-54.12Q312.17-813 343.89-813t53.91 22.33q22.2 22.32 22.2 54.04t-22.14 54.17Q375.71-660 343.99-660Zm272.64 0q-31.72 0-54.17-22.49Q540-704.98 540-736.57q0-31.81 22.49-54.12T616.57-813q31.81 0 54.12 22.33Q693-768.35 693-736.63t-22.33 54.17Q648.35-660 616.63-660Z"/></svg>
